X: 33302
T: Putting It Off
R: hornpipe
M: 4/4
K: Cmajor
{e}d^ced|:G4 {e}d^ced|Adcd fdcd|adcd fcac|
fdd'2 gdcd|BAFA GDB,D|1 G,4 {e}d^ced:|2 G,3B||
|:cGEG cEGc|BGDG DGBG|A2AF DFAF|GABe d2B2|
cGEG cEGc|BGDG DGBG|(3AAA AB cAFA|GBAF G4:|

